Simply black circles/symbolic/actions/folder-copy-symbolic.svg

<svg xmlns="http://www.w3.org/2000/svg" width="24" height="24" version="1">
  <defs>
    <linearGradient id="a">
      <stop offset="0"/>
      <stop offset="1" stop-opacity="0"/>
    </linearGradient>
  </defs>
  <path fill="gray" d="M1.921875.59179688c-.759179 0-1.37109375.60993362-1.37109375 1.36914062v2.2851563c0 .0355199.00929875.06885.01171875.1035156v6.6835936H.54882812v2.138672c0 .759184.60995458 1.371094 1.36914068 1.371094h3.6191406v5.388672h-.0117188v2.138671c0 .759186.6099536 1.371094 1.3691406 1.371094H22.167969c.759187 0 1.36914-.611908 1.36914-1.371094v-1.832031h.001953v-9.220703H18.5625V2.1210938H8.6464844L7.1152344.59179688H1.921875zm.6035156 2.92773432H16.544922c.367179 0 .662109.2968905.662109.6640626v.5996093H2.9160156c-.02139 0-.0399168.0095298-.0605468.0117188-.242562.03275-.4316407.2415725-.4316407.5078125 0 .02807.011795.0532881.015625.0800781-.004.03339-.015625.0629863-.015625.0976563v2.3691406c0 .38708.2411886.6972656.5410157.6972656.299831 0 .5410156-.3101856.5410156-.6972656V5.8261719H17.207031v5.1914061h-3.585937l-1.529297-1.5292968H6.8984375c-.759184 0-1.3730469.6118858-1.3730469 1.3710938v2.234375h-3c-.367178 0-.6640625-.296889-.6640625-.664062V4.1816406c0-.367172.2968845-.6621094.6640625-.6621094zm5.0117188 9.0351568H23.513672l.005859 1.042968H8.1621094v2.023438c0 .387077-.2564208.699218-.5742188.699218-.317795 0-.5742187-.312141-.5742187-.699218v-2.367188c0-.03467.0135581-.064266.0175781-.097656-.0042-.02701-.0175781-.051998-.0175781-.080078 0-.26624.2018863-.475169.4589843-.507813.0219-.002.0417832-.013672.0644532-.013671z"/>
</svg>

<?xml version="1.0" encoding="UTF-8" standalone="no"?>
<!-- Created with Inkscape (http://www.inkscape.org/) -->

<svg
   xmlns:dc="http://purl.org/dc/elements/1.1/"
   xmlns:cc="http://creativecommons.org/ns#"
   xmlns:rdf="http://www.w3.org/1999/02/22-rdf-syntax-ns#"
   xmlns:svg="http://www.w3.org/2000/svg"
   xmlns="http://www.w3.org/2000/svg"
   xmlns:xlink="http://www.w3.org/1999/xlink"
   xmlns:sodipodi="http://sodipodi.sourceforge.net/DTD/sodipodi-0.dtd"
   xmlns:inkscape="http://www.inkscape.org/namespaces/inkscape"
   id="svg3299"
   width="24"
   height="24"
   version="1.0"
   sodipodi:docname="folder-copy.svg"
   inkscape:version="0.92.3 (2405546, 2018-03-11)">
  <metadata
     id="metadata58">
    <rdf:RDF>
      <cc:Work
         rdf:about="">
        <dc:format>image/svg+xml</dc:format>
        <dc:type
           rdf:resource="http://purl.org/dc/dcmitype/StillImage" />
        <dc:title></dc:title>
      </cc:Work>
    </rdf:RDF>
  </metadata>
  <sodipodi:namedview
     pagecolor="#ffffff"
     bordercolor="#666666"
     borderopacity="1"
     objecttolerance="10"
     gridtolerance="10"
     guidetolerance="10"
     inkscape:pageopacity="0"
     inkscape:pageshadow="2"
     inkscape:window-width="1366"
     inkscape:window-height="719"
     id="namedview56"
     showgrid="false"
     inkscape:zoom="22.166667"
     inkscape:cx="12"
     inkscape:cy="12"
     inkscape:window-x="0"
     inkscape:window-y="25"
     inkscape:window-maximized="1"
     inkscape:current-layer="svg3299" />
  <defs
     id="defs3301">
    <linearGradient
       id="linearGradient2558-342"
       x1="18.031"
       x2="20.055"
       y1="16.408"
       y2="24.628"
       gradientUnits="userSpaceOnUse">
      <stop
         id="stop2662"
         style="stop-color:#fff"
         offset="0" />
      <stop
         id="stop2664"
         style="stop-color:#fff;stop-opacity:0"
         offset="1" />
    </linearGradient>
    <linearGradient
       id="linearGradient2556-839"
       x1="10.318"
       x2="4.176"
       y1="14.993"
       y2="4.0514"
       gradientTransform="matrix(1.0083 0 0 1.0006 -10.5 -26.478)"
       gradientUnits="userSpaceOnUse">
      <stop
         id="stop2656"
         style="stop-color:#5e5e5e"
         offset="0" />
      <stop
         id="stop2658"
         style="stop-color:#909090"
         offset="1" />
    </linearGradient>
    <linearGradient
       id="linearGradient2554-641"
       x1="126.7"
       x2="169.23"
       y1="58.583"
       y2="238.4"
       gradientTransform="matrix(.054893 .013851 .0025726 .052482 -11.212 -26.738)"
       gradientUnits="userSpaceOnUse">
      <stop
         id="stop2650"
         style="stop-color:#bababa"
         offset="0" />
      <stop
         id="stop2652"
         style="stop-color:#838383"
         offset="1" />
    </linearGradient>
    <radialGradient
       id="radialGradient2552-332"
       cx="605.71"
       cy="486.65"
       r="117.14"
       gradientTransform="matrix(-2.7744 0 0 1.9697 112.76 -872.89)"
       gradientUnits="userSpaceOnUse">
      <stop
         id="stop2644"
         offset="0" />
      <stop
         id="stop2646"
         style="stop-opacity:0"
         offset="1" />
    </radialGradient>
    <radialGradient
       id="radialGradient2550-690"
       cx="605.71"
       cy="486.65"
       r="117.14"
       gradientTransform="matrix(2.7744 0 0 1.9697 -1891.6 -872.89)"
       gradientUnits="userSpaceOnUse">
      <stop
         id="stop2638"
         offset="0" />
      <stop
         id="stop2640"
         style="stop-opacity:0"
         offset="1" />
    </radialGradient>
    <linearGradient
       id="linearGradient2548-464"
       x1="302.86"
       x2="302.86"
       y1="366.65"
       y2="609.51"
       gradientTransform="matrix(2.7744 0 0 1.9697 -1892.2 -872.89)"
       gradientUnits="userSpaceOnUse">
      <stop
         id="stop2630"
         style="stop-opacity:0"
         offset="0" />
      <stop
         id="stop2632"
         offset=".5" />
      <stop
         id="stop2634"
         style="stop-opacity:0"
         offset="1" />
    </linearGradient>
    <radialGradient
       id="radialGradient2574"
       cx="605.71"
       cy="486.65"
       r="117.14"
       gradientTransform="matrix(-2.7744 0 0 1.9697 112.76 -872.89)"
       gradientUnits="userSpaceOnUse"
       xlink:href="#linearGradient5060" />
    <linearGradient
       id="linearGradient5060">
      <stop
         id="stop5062"
         offset="0" />
      <stop
         id="stop5064"
         style="stop-opacity:0"
         offset="1" />
    </linearGradient>
    <radialGradient
       id="radialGradient2572"
       cx="605.71"
       cy="486.65"
       r="117.14"
       gradientTransform="matrix(2.7744 0 0 1.9697 -1891.6 -872.89)"
       gradientUnits="userSpaceOnUse"
       xlink:href="#linearGradient5060" />
    <linearGradient
       id="linearGradient2526"
       x1="10.318"
       x2="4.176"
       y1="14.993"
       y2="4.0514"
       gradientTransform="matrix(1.0083 0 0 1.0006 -.001856 -.00662)"
       gradientUnits="userSpaceOnUse">
      <stop
         id="stop2605"
         style="stop-color:#bb2b12"
         offset="0" />
      <stop
         id="stop2607"
         style="stop-color:#cd7233"
         offset="1" />
    </linearGradient>
    <linearGradient
       id="linearGradient2524"
       x1="126.7"
       x2="169.23"
       y1="58.583"
       y2="238.4"
       gradientTransform="matrix(.054893 .013851 .0025726 .052482 -.71383 -.26741)"
       gradientUnits="userSpaceOnUse">
      <stop
         id="stop2612"
         style="stop-color:#f0c178"
         offset="0" />
      <stop
         id="stop2614"
         style="stop-color:#e18941"
         offset=".5" />
      <stop
         id="stop2616"
         style="stop-color:#ec4f18"
         offset="1" />
    </linearGradient>
  </defs>
  <path
     style="opacity:1;fill:#808080;fill-opacity:1;stroke:none;stroke-width:1.18556631"
     d="M 1.921875 0.59179688 C 1.162696 0.59179688 0.55078125 1.2017305 0.55078125 1.9609375 L 0.55078125 4.2460938 C 0.55078125 4.2816137 0.56008 4.3149438 0.5625 4.3496094 L 0.5625 11.033203 L 0.54882812 11.033203 L 0.54882812 13.171875 C 0.54882812 13.931059 1.1587827 14.542969 1.9179688 14.542969 L 5.5371094 14.542969 L 5.5371094 19.931641 L 5.5253906 19.931641 L 5.5253906 22.070312 C 5.5253906 22.829498 6.1353442 23.441406 6.8945312 23.441406 L 22.167969 23.441406 C 22.927156 23.441406 23.537109 22.829498 23.537109 22.070312 L 23.537109 20.238281 L 23.539062 20.238281 L 23.539062 11.017578 L 18.5625 11.017578 L 18.5625 2.1210938 L 8.6464844 2.1210938 L 7.1152344 0.59179688 L 1.921875 0.59179688 z M 2.5253906 3.5195312 L 16.544922 3.5195312 C 16.912101 3.5195312 17.207031 3.8164217 17.207031 4.1835938 L 17.207031 4.7832031 L 2.9648438 4.7832031 L 2.9160156 4.7832031 C 2.8946256 4.7832031 2.8760988 4.7927329 2.8554688 4.7949219 C 2.6129068 4.8276719 2.4238281 5.0364944 2.4238281 5.3027344 C 2.4238281 5.3308044 2.4356231 5.3560225 2.4394531 5.3828125 C 2.4354531 5.4162025 2.4238281 5.4457988 2.4238281 5.4804688 L 2.4238281 7.8496094 C 2.4238281 8.2366894 2.6650167 8.546875 2.9648438 8.546875 C 3.2646748 8.546875 3.5058594 8.2366894 3.5058594 7.8496094 L 3.5058594 5.8261719 L 17.207031 5.8261719 L 17.207031 11.017578 L 13.621094 11.017578 L 12.091797 9.4882812 L 6.8984375 9.4882812 C 6.1392535 9.4882812 5.5253906 10.100167 5.5253906 10.859375 L 5.5253906 13.09375 L 2.5253906 13.09375 C 2.1582126 13.09375 1.8613281 12.796861 1.8613281 12.429688 L 1.8613281 4.1816406 C 1.8613281 3.8144686 2.1582126 3.5195312 2.5253906 3.5195312 z M 7.5371094 12.554688 L 7.5878906 12.554688 L 23.513672 12.554688 L 23.519531 13.597656 L 8.1621094 13.597656 L 8.1621094 15.621094 C 8.1621094 16.008171 7.9056886 16.320312 7.5878906 16.320312 C 7.2700956 16.320312 7.0136719 16.008171 7.0136719 15.621094 L 7.0136719 13.253906 C 7.0136719 13.219236 7.02723 13.18964 7.03125 13.15625 C 7.02705 13.12924 7.0136719 13.104252 7.0136719 13.076172 C 7.0136719 12.809932 7.2155582 12.601003 7.4726562 12.568359 C 7.4945562 12.566359 7.5144394 12.554687 7.5371094 12.554688 z "
     id="path818" />
</svg>
